X: 17
T: Cruel Willie
B: canberra pickers and fiddlers
B: tunes
M:4/4
L:1/8
R: march
Q: 1/4=100
K:D
V:1 
AB|d4 ((3efe) df|e+slide+d-d2-   d-BAB|d3e dBAF|+slide+[A6A6] AB|
d3e dBAB|d2 Bd AFE-D|F3B AF (E/F/E)|1D6:|2D8||
|:E-F-F2- F3 ((3E/F/E/D)|[G2A2]-[A2A2]- [A2A2]D2|+slide+F3B AF (E/F/E)|1D6:|2 D8||
"+".d2"+".A2 zF E-D| [G2A2]-[A2A2]- [A2A2]D2|"+".d2"+".d2 zF((3E/F/E/)|1D8:|2 D6||
% abcbook-tune_id 63ae8f1c34649c19ad7cd97a
% abcbook-tune_composer_id 
% abcbook-link-0 https://www.youtube.com/watch?v=z6181O9AVZ4
% abcbook-boost 18
% abcbook-difficulty 0
% abcbook-tags canberra pickers and fiddlers,old time tunes,steve ryan,© free
% abcbook-tablature 
% abcbook-transpose 
% abcbook-tuning DDAD
% abcbook-lastupdated 1675313182048
% abcbook-src-url https://tunebook.net/scrape/tunes.abc
% abcbook-soundfonts 
% abcbook-repeats 1


